public/images/icons/gas.svg

<svg width="34" height="36" viewBox="0 0 34 36" fill="none" xmlns="http://www.w3.org/2000/svg">
<path opacity="0.2" d="M5.75 12.75H23.25V33.75H5.75V12.75Z" fill="url(#paint0_linear_25_488)"/>
<path d="M0.5 32H28.5V35.5H0.5V32Z" fill="url(#paint1_linear_25_488)"/>
<path d="M25 33.75H21.5V5.75C21.5 4.7 20.8 4 19.75 4H9.25C8.2 4 7.5 4.7 7.5 5.75V33.75H4V5.75C4 2.775 6.275 0.5 9.25 0.5H19.75C22.725 0.5 25 2.775 25 5.75V33.75Z" fill="url(#paint2_linear_25_488)"/>
<path d="M28.5 28.4999H23.25V24.9999H28.5C29.55 24.9999 30.25 24.2999 30.25 23.2499V11.6999L25.525 6.9749L27.975 4.5249L33.75 10.2999V23.2499C33.75 26.2249 31.475 28.4999 28.5 28.4999ZM5.75 10.9999H23.25V14.4999H5.75V10.9999Z" fill="url(#paint3_linear_25_488)"/>
<path d="M28.5 7.5V12.75C28.5 13.8 29.2 14.5 30.25 14.5H32V11L28.5 7.5Z" fill="url(#paint4_linear_25_488)"/>
<defs>
<linearGradient id="paint0_linear_25_488" x1="5.75" y1="23.25" x2="20.6642" y2="17.0399" gradientUnits="userSpaceOnUse">
<stop stop-color="#FFE7E0"/>
<stop offset="0.34375" stop-color="#F8DBF4"/>
<stop offset="0.6875" stop-color="#C4DDFF"/>
<stop offset="1" stop-color="#CAE9FF"/>
</linearGradient>
<linearGradient id="paint1_linear_25_488" x1="0.500001" y1="33.75" x2="2.14913" y2="27.1579" gradientUnits="userSpaceOnUse">
<stop stop-color="#FFE7E0"/>
<stop offset="0.34375" stop-color="#F8DBF4"/>
<stop offset="0.6875" stop-color="#C4DDFF"/>
<stop offset="1" stop-color="#CAE9FF"/>
</linearGradient>
<linearGradient id="paint2_linear_25_488" x1="4" y1="17.125" x2="23.098" y2="11.0981" gradientUnits="userSpaceOnUse">
<stop stop-color="#FFE7E0"/>
<stop offset="0.34375" stop-color="#F8DBF4"/>
<stop offset="0.6875" stop-color="#C4DDFF"/>
<stop offset="1" stop-color="#CAE9FF"/>
</linearGradient>
<linearGradient id="paint3_linear_25_488" x1="5.75" y1="16.5124" x2="26.6372" y2="4.32363" gradientUnits="userSpaceOnUse">
<stop stop-color="#FFE7E0"/>
<stop offset="0.34375" stop-color="#F8DBF4"/>
<stop offset="0.6875" stop-color="#C4DDFF"/>
<stop offset="1" stop-color="#CAE9FF"/>
</linearGradient>
<linearGradient id="paint4_linear_25_488" x1="28.5" y1="11" x2="31.7944" y2="10.177" gradientUnits="userSpaceOnUse">
<stop stop-color="#FFE7E0"/>
<stop offset="0.34375" stop-color="#F8DBF4"/>
<stop offset="0.6875" stop-color="#C4DDFF"/>
<stop offset="1" stop-color="#CAE9FF"/>
</linearGradient>
</defs>
</svg>

<svg fill="none" height="36" viewBox="0 0 34 36" width="34" xmlns="http://www.w3.org/2000/svg" xmlns:xlink="http://www.w3.org/1999/xlink"><linearGradient id="a"><stop offset="0" stop-color="#ffe7e0"/><stop offset=".34375" stop-color="#f8dbf4"/><stop offset=".6875" stop-color="#c4ddff"/><stop offset="1" stop-color="#cae9ff"/></linearGradient><linearGradient id="b" gradientUnits="userSpaceOnUse" x1="5.75" x2="20.6642" xlink:href="#a" y1="23.25" y2="17.0399"/><linearGradient id="c" gradientUnits="userSpaceOnUse" x1=".500001" x2="2.14913" xlink:href="#a" y1="33.75" y2="27.1579"/><linearGradient id="d" gradientUnits="userSpaceOnUse" x1="4" x2="23.098" xlink:href="#a" y1="17.125" y2="11.0981"/><linearGradient id="e" gradientUnits="userSpaceOnUse" x1="5.75" x2="26.6372" xlink:href="#a" y1="16.5124" y2="4.32363"/><linearGradient id="f" gradientUnits="userSpaceOnUse" x1="28.5" x2="31.7944" xlink:href="#a" y1="11" y2="10.177"/><path d="m5.75 12.75h17.5v21h-17.5z" fill="url(#b)" opacity=".2"/><path d="m.5 32h28v3.5h-28z" fill="url(#c)"/><path d="m25 33.75h-3.5v-28c0-1.05-.7-1.75-1.75-1.75h-10.5c-1.05 0-1.75.7-1.75 1.75v28h-3.5v-28c0-2.975 2.275-5.25 5.25-5.25h10.5c2.975 0 5.25 2.275 5.25 5.25z" fill="url(#d)"/><path d="m28.5 28.4999h-5.25v-3.5h5.25c1.05 0 1.75-.7 1.75-1.75v-11.55l-4.725-4.725 2.45-2.45 5.775 5.775v12.95c0 2.975-2.275 5.25-5.25 5.25zm-22.75-17.5h17.5v3.5h-17.5z" fill="url(#e)"/><path d="m28.5 7.5v5.25c0 1.05.7 1.75 1.75 1.75h1.75v-3.5z" fill="url(#f)"/></svg>
